Papirus/32x32/apps/hashit.svg

<svg xmlns="http://www.w3.org/2000/svg" height="32" width="32" version="1.1" viewBox="0 0 32 32">
 <path style="opacity:.2" d="m16 3a14 14 0 0 0 -14 14 14 14 0 0 0 14 14 14 14 0 0 0 14 -14 14 14 0 0 0 -14 -14z"/>
 <path style="fill:#6ea23d" d="m16 2a14 14 0 0 0 -14 14 14 14 0 0 0 14 14 14 14 0 0 0 14 -14 14 14 0 0 0 -14 -14z"/>
 <path style="opacity:.2;fill:#ffffff" d="m16 2a14 14 0 0 0 -14 14 14 14 0 0 0 0.0214844 0.414062 14 14 0 0 1 13.978516 -13.414062 14 14 0 0 1 13.978516 13.585938 14 14 0 0 0 0.021484 -0.585938 14 14 0 0 0 -14 -14z"/>
 <path style="opacity:.2" d="m13 8-0.888672 4h-3.8886718l-0.6679687 3h3.8906245l-0.890624 4h-3.8886724l-0.6660156 3h3.8886719l-0.8886719 4h3l0.888672-4h4l-0.888672 4h3l0.888672-4h3.912109l0.666016-3h-3.912109l0.890624-4h3.910157l0.644531-2.896484v-0.103516h-3.888672l0.888672-4h-3l-0.888672 4h-4l0.888672-4h-3zm1.445312 7h4l-0.890624 4h-4l0.890624-4z"/>
 <path style="fill:#ffffff" d="m13 7h3l-4 18h-3z"/>
 <path style="fill:#ffffff" d="m20 7h3l-4 18h-3z"/>
 <path style="fill:#ffffff" d="m8.2223281 11-0.6679687 3h17.800719l0.644531-2.896484v-0.103516zm-1.5566406 7-0.6660156 3h17.800718l0.666016-3z"/>
</svg>

<svg xmlns="http://www.w3.org/2000/svg" width="32" height="32" version="1.1" viewBox="0 0 32 32">
 <path style="opacity:0.2" d="M 16,3 A 14,14 0 0 0 2,17 14,14 0 0 0 16,31 14,14 0 0 0 30,17 14,14 0 0 0 16,3 Z"/>
 <path style="fill:#6ea23d" d="M 16,2 A 14,14 0 0 0 2,16 14,14 0 0 0 16,30 14,14 0 0 0 30,16 14,14 0 0 0 16,2 Z"/>
 <path style="fill:#ffffff;opacity:0.2" d="M 16 2 A 14 14 0 0 0 2 16 A 14 14 0 0 0 2.0214844 16.414062 A 14 14 0 0 1 16 3 A 14 14 0 0 1 29.978516 16.585938 A 14 14 0 0 0 30 16 A 14 14 0 0 0 16 2 z"/>
 <path style="opacity:0.2" d="m 13,8 -0.888672,4 H 9.2226562 l -0.6679687,3 h 2.8906245 l -0.890624,4 H 7.6660156 L 7,22 H 9.8886719 L 9,26 h 3 l 0.888672,-4 h 4 L 16,26 h 3 l 0.888672,-4 h 2.912109 l 0.666016,-3 h -2.912109 l 0.890624,-4 h 2.910157 L 25,12.103516 V 12 H 22.111328 L 23,8 h -3 l -0.888672,4 h -4 L 16,8 Z m 1.445312,7 h 4 l -0.890624,4 h -4 z"/>
 <path style="fill:#ffffff" d="m 13,7 h 3 L 12,25 H 9 Z"/>
 <path style="fill:#ffffff" d="m 20,7 h 3 l -4,18 h -3 z"/>
 <path style="fill:#ffffff" d="M 9.2226562 11 L 8.5546875 14 L 24.355469 14 L 25 11.103516 L 25 11 L 9.2226562 11 z M 7.6660156 18 L 7 21 L 22.800781 21 L 23.466797 18 L 7.6660156 18 z"/>
</svg>
